dist/assets/img/svg/sp-02.svg

<svg width="40" height="38" viewBox="0 0 40 38" fill="none" xmlns="http://www.w3.org/2000/svg">
<g clip-path="url(#clip0_51_613)">
<path d="M18.8889 21.2353V17.3235C18.8889 16.8789 19.0645 16.4525 19.3771 16.1381C19.6896 15.8237 20.1135 15.647 20.5556 15.647C20.9976 15.647 21.4215 15.8237 21.7341 16.1381C22.0466 16.4525 22.2222 16.8789 22.2222 17.3235V21.2353H26.1111C26.5531 21.2353 26.9771 21.4119 27.2896 21.7263C27.6022 22.0407 27.7778 22.4671 27.7778 22.9117C27.7778 23.3564 27.6022 23.7828 27.2896 24.0972C26.9771 24.4116 26.5531 24.5882 26.1111 24.5882H22.2222V28.5C22.2222 28.9446 22.0466 29.371 21.7341 29.6854C21.4215 29.9998 20.9976 30.1764 20.5556 30.1764C20.1135 30.1764 19.6896 29.9998 19.3771 29.6854C19.0645 29.371 18.8889 28.9446 18.8889 28.5V24.5882H15C14.558 24.5882 14.1341 24.4116 13.8215 24.0972C13.5089 23.7828 13.3333 23.3564 13.3333 22.9117C13.3333 22.4671 13.5089 22.0407 13.8215 21.7263C14.1341 21.4119 14.558 21.2353 15 21.2353H18.8889Z" fill="#009F90"/>
<path d="M12.7778 0H27.2222C27.625 1.70841e-05 28.0141 0.146731 28.3176 0.413009C28.6212 0.679287 28.8186 1.04712 28.8733 1.44847L28.8889 1.67647V8.94118H32.7778C34.6932 8.94118 36.5302 9.70656 37.8847 11.069C39.2391 12.4314 40 14.2792 40 16.2059V30.7353C40 32.662 39.2391 34.5098 37.8847 35.8722C36.5302 37.2346 34.6932 38 32.7778 38H7.22222C5.30677 38 3.46977 37.2346 2.11534 35.8722C0.76091 34.5098 0 32.662 0 30.7353V16.2059C0 14.2792 0.76091 12.4314 2.11534 11.069C3.46977 9.70656 5.30677 8.94118 7.22222 8.94118H11.1111V1.67647C11.1111 1.27135 11.257 0.879941 11.5217 0.574626C11.7864 0.26931 12.1521 0.0707432 12.5511 0.015647L12.7778 0ZM31.7778 13.2941H8.22222C7.19082 13.2941 6.20167 13.7062 5.47236 14.4398C4.74305 15.1734 4.33333 16.1684 4.33333 17.2059V29.7353C4.33333 31.8946 6.07556 33.6471 8.22222 33.6471H31.7778C32.8092 33.6471 33.7983 33.2349 34.5276 32.5013C35.2569 31.7677 35.6667 30.7728 35.6667 29.7353V17.2059C35.6667 16.1684 35.2569 15.1734 34.5276 14.4398C33.7983 13.7062 32.8092 13.2941 31.7778 13.2941ZM25.5556 3.35294H14.4444V8.94118H25.5556V3.35294Z" fill="#009F90"/>
</g>
<defs>
<clipPath id="clip0_51_613">
<rect width="40" height="38" fill="white"/>
</clipPath>
</defs>
</svg>

<svg width="40" height="38" fill="none" xmlns="http://www.w3.org/2000/svg"><g clip-path="url(#clip0_51_613)" fill="#009F90"><path d="M18.889 21.235v-3.912c0-.444.175-.87.488-1.185a1.662 1.662 0 012.357 0c.313.314.488.74.488 1.185v3.912h3.89c.441 0 .865.177 1.178.491a1.681 1.681 0 010 2.371 1.662 1.662 0 01-1.179.491h-3.889V28.5c0 .445-.175.871-.488 1.185a1.662 1.662 0 01-2.357 0 1.681 1.681 0 01-.488-1.185v-3.912H15a1.66 1.66 0 01-1.178-.49 1.681 1.681 0 010-2.372 1.662 1.662 0 011.178-.49h3.889z"/><path d="M12.778 0h14.444a1.664 1.664 0 011.651 1.448l.016.228v7.265h3.889c1.915 0 3.752.766 5.107 2.128A7.287 7.287 0 0140 16.206v14.53c0 1.926-.76 3.774-2.115 5.136A7.201 7.201 0 0132.778 38H7.222a7.2 7.2 0 01-5.107-2.128A7.286 7.286 0 010 30.735v-14.53c0-1.926.76-3.774 2.115-5.136a7.2 7.2 0 015.107-2.128h3.89V1.676a1.678 1.678 0 011.44-1.661L12.777 0zm19 13.294H8.222c-1.031 0-2.02.412-2.75 1.146a3.924 3.924 0 00-1.139 2.766v12.53c0 2.159 1.743 3.911 3.89 3.911h23.555c1.031 0 2.02-.412 2.75-1.146a3.923 3.923 0 001.139-2.766v-12.53c0-1.037-.41-2.032-1.14-2.765a3.877 3.877 0 00-2.75-1.146zm-6.222-9.941H14.444V8.94h11.112V3.353z"/></g><defs><clipPath id="clip0_51_613"><path fill="#fff" d="M0 0h40v38H0z"/></clipPath></defs></svg>
